src/assets/images/icons/dental.svg

<?xml version="1.0" encoding="utf-8"?>
<svg width="28" height="29" viewBox="0 0 28 29" fill="none" xmlns="http://www.w3.org/2000/svg">
<path d="M28 5.21836C28 2.51836 25.8 0.318359 23.1 0.318359C22.1 0.318359 20.2 0.718359 17.4 1.71836C15.2 2.41836 12.8 2.41836 10.6 1.71836C7.8 0.718359 5.9 0.318359 4.9 0.318359C2.2 0.318359 0 2.51836 0 5.21836C0 7.21836 1 10.9184 1.3 11.8184L0 24.8184C0 26.7184 1.6 28.3184 3.5 28.3184C4.5 28.3184 5.5 27.8184 6.4 26.7184L11.4 20.8184C12 20.1184 12.9 19.2184 14 19.2184C14.9 19.2184 15.7 19.7184 16.6 20.8184L21.6 26.7184C22.1 27.3184 23.1 28.3184 24.5 28.3184C26.4 28.3184 28 26.7184 28 24.7184L26.7 11.8184C27 10.9184 28 7.21836 28 5.21836ZM18.1 8.91836C16.8 9.21836 15.4 9.41836 14 9.41836C12.6 9.41836 11.2 9.21836 9.9 8.91836C9.4 8.81836 9 8.21836 9.2 7.71836C9.3 7.21836 9.9 6.81836 10.4 7.01836C11.5 7.31836 12.8 7.41836 14 7.41836C15.2 7.41836 16.5 7.31836 17.7 7.01836C18.2 6.91836 18.8 7.21836 18.9 7.71836C19 8.31836 18.7 8.81836 18.1 8.91836Z" fill="#1F3D56"/>
</svg>

<svg width="28" height="29" fill="none" xmlns="http://www.w3.org/2000/svg"><path d="M28 5.218c0-2.7-2.2-4.9-4.9-4.9-1 0-2.9.4-5.7 1.4-2.2.7-4.6.7-6.8 0-2.8-1-4.7-1.4-5.7-1.4-2.7 0-4.9 2.2-4.9 4.9 0 2 1 5.7 1.3 6.6l-1.3 13c0 1.9 1.6 3.5 3.5 3.5 1 0 2-.5 2.9-1.6l5-5.9c.6-.7 1.5-1.6 2.6-1.6.9 0 1.7.5 2.6 1.6l5 5.9c.5.6 1.5 1.6 2.9 1.6 1.9 0 3.5-1.6 3.5-3.6l-1.3-12.9c.3-.9 1.3-4.6 1.3-6.6zm-9.9 3.7c-1.3.3-2.7.5-4.1.5-1.4 0-2.8-.2-4.1-.5-.5-.1-.9-.7-.7-1.2.1-.5.7-.9 1.2-.7 1.1.3 2.4.4 3.6.4 1.2 0 2.5-.1 3.7-.4.5-.1 1.1.2 1.2.7.1.6-.2 1.1-.8 1.2z" fill="#1F3D56"/></svg>
